src/platform/plugins/shared/custom_integrations/public/assets/language_clients/python.svg

<svg width="128" height="128" viewBox="0 0 128 128" fill="none" xmlns="http://www.w3.org/2000/svg">
<path d="M63.4411 0.451237C58.2026 0.475362 53.2 0.918173 48.7982 1.69017C35.8311 3.96076 33.4768 8.7133 33.4768 17.4778V29.053H64.1197V32.9114H33.4768H21.9768C13.0711 32.9114 5.27307 38.2169 2.83394 48.3096C0.0204325 59.8783 -0.104362 67.0973 2.83394 79.1769C5.01215 88.1684 10.214 94.5751 19.1197 94.5751H29.6554V80.699C29.6554 70.6744 38.4064 61.8318 48.7982 61.8318H79.4054C87.9253 61.8318 94.7268 54.8788 94.7268 46.3981V17.4778C94.7268 9.24689 87.7211 3.06388 79.4054 1.69017C74.1414 0.821672 68.6796 0.427111 63.4411 0.451237ZM46.8697 9.76097C50.0349 9.76097 52.6197 12.3647 52.6197 15.5663C52.6197 18.7565 50.0349 21.3362 46.8697 21.3362C43.6931 21.3362 41.1197 18.7565 41.1197 15.5663C41.1197 12.3647 43.6931 9.76097 46.8697 9.76097Z" fill="url(#paint0_linear)"/>
<path d="M98.548 32.9111V46.3979C98.548 56.8539 89.6041 65.6545 79.4051 65.6545H48.798C40.4142 65.6545 33.4766 72.7664 33.4766 81.0881V110.008C33.4766 118.239 40.6978 123.081 48.798 125.442C58.4978 128.269 67.7994 128.78 79.4051 125.442C87.1196 123.228 94.7266 118.773 94.7266 110.008V98.4333H64.1194V94.5749H94.7266H110.048C118.954 94.5749 122.272 88.4179 125.369 79.1766C128.569 69.6628 128.433 60.5138 125.369 48.3094C123.169 39.5222 118.965 32.9111 110.048 32.9111H98.548ZM81.3337 106.15C84.5103 106.15 87.0837 108.73 87.0837 111.92C87.0837 115.122 84.5103 117.725 81.3337 117.725C78.1685 117.725 75.5837 115.122 75.5837 111.92C75.5837 108.73 78.1685 106.15 81.3337 106.15Z" fill="url(#paint1_linear)"/>
<defs>
<linearGradient id="paint0_linear" x1="0.676758" y1="0.450195" x2="70.8067" y2="60.7442" gradientUnits="userSpaceOnUse">
<stop stop-color="#5A9FD4"/>
<stop offset="1" stop-color="#306998"/>
</linearGradient>
<linearGradient id="paint1_linear" x1="80.5973" y1="110.947" x2="55.5453" y2="75.528" gradientUnits="userSpaceOnUse">
<stop stop-color="#FFD43B"/>
<stop offset="1" stop-color="#FFE873"/>
</linearGradient>
</defs>
</svg>

<svg xmlns="http://www.w3.org/2000/svg" width="128" height="128" fill="none"><path fill="url(#a)" d="M63.441.451C58.203.475 53.2.918 48.798 1.691 35.831 3.96 33.477 8.712 33.477 17.477v11.575H64.12v3.858H21.977c-8.906 0-16.704 5.306-19.143 15.399-2.814 11.568-2.938 18.787 0 30.867 2.178 8.991 7.38 15.398 16.286 15.398h10.535V80.7c0-10.025 8.751-18.867 19.143-18.867h30.607c8.52 0 15.322-6.953 15.322-15.434v-28.92c0-8.231-7.006-14.414-15.322-15.788C74.141.822 68.68.427 63.441.451M46.87 9.761c3.165 0 5.75 2.604 5.75 5.805 0 3.19-2.585 5.77-5.75 5.77-3.177 0-5.75-2.58-5.75-5.77 0-3.201 2.573-5.805 5.75-5.805"/><path fill="url(#b)" d="M98.548 32.911v13.487c0 10.456-8.944 19.256-19.143 19.256H48.798c-8.384 0-15.321 7.112-15.321 15.434v28.92c0 8.231 7.22 13.073 15.321 15.434 9.7 2.827 19.001 3.338 30.607 0 7.715-2.214 15.322-6.669 15.322-15.434V98.433H64.119v-3.858h45.929c8.906 0 12.224-6.157 15.321-15.398 3.2-9.514 3.064-18.663 0-30.868-2.2-8.787-6.404-15.398-15.321-15.398zM81.334 106.15c3.176 0 5.75 2.58 5.75 5.77 0 3.202-2.574 5.805-5.75 5.805-3.166 0-5.75-2.603-5.75-5.805 0-3.19 2.584-5.77 5.75-5.77"/><defs><linearGradient id="a" x1=".677" x2="70.807" y1=".45" y2="60.744" gradientUnits="userSpaceOnUse"><stop stop-color="#5A9FD4"/><stop offset="1" stop-color="#306998"/></linearGradient><linearGradient id="b" x1="80.597" x2="55.545" y1="110.947" y2="75.528" gradientUnits="userSpaceOnUse"><stop stop-color="#FFD43B"/><stop offset="1" stop-color="#FFE873"/></linearGradient></defs></svg>
